X: 25069
T: Maids Of Castlebar, The
R: reel
M: 4/4
K: Dmajor
K: Dmaj
ABc||dD D2 AD D2|D2 FA BAFA|d2 cd Bd AF|DEFD EDB,D|
FD D2 AD D2|D2 FA BAFA|dfec dBAG|FDEF D2Bc|
dD D2 AD D2|D2FA BAFA|d2cA BAFA|DEFD EDB,D|
F3 D EDB, D|D2FA BAFA|dfec dBAG|FDEF D4|
|:a2^ga fd d2|fdad fddf|gf bf geef|ge be geeg|
f3a g3e|fdec dcBA|Bcde fa ec|dBAG FDD2:|

